!!!OTL: Changgong diao
!!!ARE: Asia, China, Shanxi Ankang
!! I, 67
!!!SCT: C1402
!!!YEM: Copyright 1995, estate of Helmut Schaffrath.
**kern
*ICvox
*Ivox
!! Mixed meters:  2/4; 3/4
*M3/4
*k[]
*C:
{8g
16g
16g
8a
8a
=1
8dd
8cc#
4dd}
=2
{8dd
16dd
16cc
8a
8g
4g
=3
8a
4a
8f#
4g}
=4
*M2/4
{8g
16g
16g
8a
8a
=5
8cc
8dd
8dd
8a
=6
8cc
8a
4g}
=7
{8e
4g
8a
=8
8a
8dd
8cc
8dd
=9
8.cc
16a
4g}
=10
{4a
8g
8a
=11
8dd
16dd
16cc
8a
8a
=12
2g}
==
!!!AGN: Xiaodiao. Changgong shenghuo
!!!ONB: ESAC (Essen Associative Code) Database: HUANG
!!!AMT: irregular
!!!AIN: vox
!!!EED: Helmut Schaffrath
!!!EEV: 1.0
*-
